X:124
T:Irishman,The. RH.124
R:.Hornpipe
S:Rev.R.Harrison’s MS,c1815,Cumbria
N:To make the repeats work I replaced the final e2 of
N:the A music with an e, and added the lead rest to
N:the B music. PJH.
O:England
A:Temple Sowerby,Cumbria
Z:vmp.Simon Wilson. Review PJH, 2008.
M:C|
L:1/8
Q:1/2=90
K:A
G|A2A2 A3B|\
cAec aecA|E2E2 E2((3cBA)|GEBE cEBE|!
A2A2 A3B|cAec aece|fgag fedc|Be^de f2e:|!
|:z|e2e2 e2((3efg)|ae ((3efe) ce ((3efe)|\
fgag fedc|BcBA AGFE|!
EA ((3GBG) ((3ABA) ((3GBG)|EA ((3GBG) A2f2|\
ecce dBAG|A2A2 A3:|

